icons/desktop/16/svg/diamond-16.svg

<svg width="16" height="16" viewBox="0 0 16 16" fill="none" xmlns="http://www.w3.org/2000/svg">
<g clip-path="url(#clip0_8069_32630)">
<path fill-rule="evenodd" clip-rule="evenodd" d="M8.00104 2.11694C9.3655 2.11694 10.9901 2.20864 12.7989 2.4978L12.7979 2.49878C13.6231 2.63048 14.3251 3.14207 14.7276 3.84644L15.6387 5.44214L15.7442 5.64722C16.2273 6.68618 16.0169 7.92922 15.1954 8.75073C15.1893 8.75679 15.1821 8.76153 15.1758 8.76733L9.9444 13.9998C8.87057 15.0733 7.12956 15.0733 6.05572 13.9998L0.805723 8.74976C-0.0713238 7.87271 -0.252849 6.51714 0.36334 5.44019L1.2735 3.84644C1.69223 3.11375 2.41771 2.62105 3.2442 2.48999C4.61727 2.27262 6.21754 2.11694 8.00104 2.11694ZM1.86627 7.68823L7.11627 12.9382C7.15842 12.9804 7.20378 13.0176 7.25006 13.0525V7.9939C5.44983 7.96999 3.63877 7.85932 1.84576 7.66577C1.85274 7.6731 1.85909 7.68105 1.86627 7.68823ZM14.1553 7.66577C12.3652 7.85932 10.5545 7.96999 8.75006 7.9939V13.0525C8.79634 13.0176 8.8417 12.9804 8.88385 12.9382L14.1338 7.68823L14.1446 7.67847C14.1485 7.6745 14.1515 7.66978 14.1553 7.66577ZM8.00104 3.61694C7.70491 3.61694 7.41417 3.62207 7.12896 3.63062L5.52252 6.44312C7.17349 6.51631 8.82856 6.51599 10.4766 6.44312L8.8692 3.62964C8.56895 3.62068 8.27932 3.61694 8.00104 3.61694ZM12.1475 6.34351C12.8707 6.28965 13.5917 6.22251 14.3096 6.14038L13.4249 4.59058C13.2354 4.2592 12.9142 4.03454 12.5616 3.97827C11.9002 3.87254 11.2647 3.7948 10.6592 3.73901L12.1475 6.34351ZM5.33893 3.73999C4.67908 3.80074 4.05806 3.87985 3.47955 3.97144C3.14253 4.02483 2.84831 4.20464 2.65338 4.47046L2.57623 4.5896L1.69049 6.14038C2.40866 6.22229 3.12939 6.28877 3.85162 6.34253L5.33893 3.73999Z" fill="black"/>
</g>
<defs>
<clipPath id="clip0_8069_32630">
<rect width="16" height="16" fill="white"/>
</clipPath>
</defs>
</svg>

<!-- This Source Code Form is subject to the terms of the Mozilla Public
   - License, v. 2.0. If a copy of the MPL was not distributed with this
   - file, You can obtain one at http://mozilla.org/MPL/2.0/. -->
<svg xmlns="http://www.w3.org/2000/svg" width="16" height="16" fill="context-fill" fill-opacity="context-fill-opacity" viewBox="0 0 16 16">
    <g clip-path="url(#clip0_8069_32630)">
        <path fill-rule="evenodd" d="M8.001 2.117c1.365 0 2.99.092 4.798.38l-.001.002a2.73 2.73 0 0 1 1.93 1.347l.91 1.596.106.205a2.75 2.75 0 0 1-.549 3.104l-.02.016L9.946 14a2.75 2.75 0 0 1-3.89 0L.806 8.75a2.75 2.75 0 0 1-.442-3.31l.91-1.594A2.76 2.76 0 0 1 3.245 2.49a30.4 30.4 0 0 1 4.757-.373M1.866 7.688l5.25 5.25q.064.063.134.114V7.995a58 58 0 0 1-5.404-.328zm12.29-.022c-1.79.193-3.601.304-5.406.328v5.059q.07-.052.134-.115l5.25-5.25.01-.01q.007-.005.011-.012M8 3.616q-.444 0-.872.015L5.523 6.443c1.65.073 3.306.073 4.954 0L8.869 3.63q-.45-.014-.868-.013m4.147 2.728a55 55 0 0 0 2.162-.204l-.885-1.55a1.23 1.23 0 0 0-.863-.612 29 29 0 0 0-1.903-.239zM5.338 3.74c-.659.06-1.28.14-1.858.231a1.26 1.26 0 0 0-.827.5l-.077.119-.886 1.55q1.079.122 2.162.203z" clip-rule="evenodd" />
    </g>
</svg>
